public/img/clients/influitive.svg

<svg xmlns="http://www.w3.org/2000/svg" focusable="false" role="img" viewBox="0 0 200 100" fill="currentColor">
  <path fill-rule="evenodd" d="M37.168 40.853a11.092 11.092 0 015.423 12.26 10.93 10.93 0 01-10.594 8.24c-4.977.01-9.297-3.378-10.554-8.185-1.173-4.89.97-9.87 5.36-12.29-.668-1.324-.837-2.816-.426-4.227a14.798 14.798 0 00-8.998 16.694 14.838 14.838 0 0014.628 12.07c7.216-.017 13.34-5.092 14.65-12.145a14.796 14.796 0 00-9.084-16.648c.42 1.41.256 2.902-.404 4.23l-.001.001z" clip-rule="evenodd"/>
  <path fill-rule="evenodd" d="M28.97 45.27a5.871 5.871 0 00-2.72 6.724 5.93 5.93 0 005.734 4.465c2.736-.008 5.137-1.84 5.793-4.496a5.872 5.872 0 00-2.754-6.71c-.082 0-1.266-.82-1.497-2.07-.167-.9.243-1.825.905-2.49a3.604 3.604 0 00.82-3.817c-.583-1.326-1.83-2.235-3.323-2.23-1.41.003-2.65.918-3.228 2.247a3.605 3.605 0 00.838 3.812c.665.662 1.072 1.583.92 2.487-.25 1.47-1.49 2.077-1.49 2.077l.002.001zm27.37-2.5c-1.62 0-2.67-1.145-2.67-2.576 0-1.464 1.08-2.577 2.734-2.577 1.655 0 2.673 1.113 2.704 2.577 0 1.43-1.05 2.576-2.735 2.576h-.033zm-2.385 17.59V44.807h4.835V60.36h-4.835zm8.08-10.592c0-1.94-.064-3.563-.127-4.962h4.2l.22 2.163h.097c.636-1.02 2.194-2.514 4.803-2.514 3.18 0 5.567 2.13 5.567 6.712v9.193H71.96v-8.62c0-2.004-.7-3.372-2.45-3.372-1.336 0-2.13.923-2.48 1.814-.128.317-.16.763-.16 1.208v8.97h-4.835V49.768zM80.613 60.36V48.37h-2.068v-3.562h2.068V44.2c0-1.875.572-3.943 1.94-5.215 1.24-1.146 2.894-1.56 4.326-1.56 1.05 0 1.876.16 2.544.32l-.19 3.72a5.258 5.258 0 00-1.56-.222c-1.59 0-2.258 1.24-2.258 2.767v.796h3.117v3.562h-3.086V60.36h-4.834zm10.274-22.584h4.835V60.36h-4.835V37.776zm22.743 17.59c0 2.036.065 3.69.128 4.995h-4.198l-.223-2.195h-.096c-.603.955-2.067 2.546-4.865 2.546-3.182 0-5.472-1.972-5.472-6.775v-9.13h4.836v8.366c0 2.26.73 3.628 2.448 3.628 1.336 0 2.13-.923 2.417-1.686.127-.286.19-.636.19-1.05v-9.256h4.836v10.56l-.001-.003zm5.632-12.596c-1.622 0-2.673-1.145-2.673-2.576 0-1.464 1.082-2.577 2.735-2.577 1.654 0 2.673 1.113 2.704 2.577 0 1.43-1.05 2.576-2.737 2.576h-.03.001zm-2.386 17.59V44.807h4.835V60.36h-4.835zm13.487-19.785v4.23h3.467v3.563h-3.467v5.662c0 1.877.478 2.736 1.91 2.736.667 0 .985-.032 1.43-.127l.032 3.657c-.604.223-1.78.414-3.117.414-1.558 0-2.863-.54-3.658-1.336-.89-.922-1.336-2.417-1.336-4.612v-6.394h-2.068v-3.562h2.068V41.88l4.74-1.305h-.001zm8.017 2.195c-1.622 0-2.673-1.145-2.673-2.576 0-1.464 1.082-2.577 2.736-2.577 1.654 0 2.673 1.113 2.703 2.577 0 1.43-1.05 2.576-2.735 2.576h-.031zm-2.386 17.59V44.807h4.835V60.36h-4.836.001zm11.674-15.554l2.1 7.22c.38 1.305.636 2.545.89 3.786h.095c.255-1.273.51-2.45.86-3.786l2.003-7.22h5.09l-5.79 15.555h-4.835l-5.66-15.554h5.248l-.001-.001zm15.746 9.288c.16 2.036 2.132 2.99 4.39 2.99 1.654 0 2.99-.223 4.294-.668l.636 3.276c-1.59.67-3.53.986-5.63.986-5.28 0-8.302-3.053-8.302-7.952 0-3.944 2.48-8.302 7.857-8.302 5.025 0 6.933 3.913 6.933 7.76 0 .83-.095 1.56-.16 1.942l-10.02-.032h.002zm5.694-3.308c0-1.145-.51-3.15-2.704-3.15-2.067 0-2.894 1.877-3.022 3.15h5.726zm6.292-6.906h-1.197v-.844h3.41v.843h-1.21v3.594H175.4V43.88zm6.474 1.895c-.02-.533-.04-1.172-.04-1.823h-.013a26.223 26.223 0 01-.5 1.718l-.54 1.73H180l-.474-1.71a23.339 23.339 0 01-.402-1.738h-.013c-.02.6-.047 1.284-.073 1.836l-.086 1.686h-.928l.284-4.438h1.337l.434 1.488c.145.507.276 1.06.374 1.58h.03c.117-.513.268-1.092.42-1.593l.468-1.474h1.316l.237 4.438h-.974l-.072-1.7h-.004z" clip-rule="evenodd"/>
</svg>

<svg width="200" height="100" viewBox="0 0 200 100" fill="none" xmlns="http://www.w3.org/2000/svg">
<path fill-rule="evenodd" clip-rule="evenodd" d="M37.168 40.8531C41.488 43.2471 43.738 48.2171 42.591 53.1131C41.361 57.9271 37.056 61.3391 31.997 61.3531C27.02 61.3631 22.7 57.9751 21.443 53.1681C20.27 48.2781 22.413 43.2981 26.803 40.8781C26.135 39.5541 25.966 38.0621 26.377 36.6511C19.749 39.3231 15.952 46.2991 17.379 53.3451C18.724 60.3911 24.874 65.4351 32.007 65.4151C39.223 65.3981 45.347 60.3231 46.657 53.2701C48.047 46.2151 44.217 39.2601 37.573 36.6221C37.993 38.0321 37.829 39.5241 37.169 40.8521L37.168 40.8531Z" fill="black"/>
<path fill-rule="evenodd" clip-rule="evenodd" d="M28.97 45.27C26.65 46.602 25.497 49.342 26.25 51.994C26.92 54.647 29.33 56.464 31.984 56.459C34.72 56.451 37.121 54.619 37.777 51.963C38.517 49.308 37.349 46.573 35.023 45.253C34.941 45.253 33.757 44.433 33.526 43.183C33.359 42.283 33.769 41.358 34.431 40.693C35.425 39.696 35.753 38.203 35.251 36.876C34.668 35.55 33.421 34.641 31.928 34.646C30.518 34.649 29.278 35.564 28.7 36.893C28.205 38.221 28.54 39.713 29.538 40.705C30.203 41.367 30.61 42.288 30.458 43.192C30.208 44.662 28.968 45.269 28.968 45.269L28.97 45.27ZM56.34 42.77C54.72 42.77 53.67 41.625 53.67 40.194C53.67 38.73 54.75 37.617 56.404 37.617C58.059 37.617 59.077 38.73 59.108 40.194C59.108 41.624 58.058 42.77 56.373 42.77H56.341H56.34ZM53.955 60.36V44.807H58.79V60.36H53.955ZM62.035 49.768C62.035 47.828 61.971 46.205 61.908 44.806H66.108L66.328 46.969H66.425C67.061 45.949 68.619 44.455 71.228 44.455C74.408 44.455 76.795 46.585 76.795 51.167V60.36H71.96V51.74C71.96 49.736 71.26 48.368 69.51 48.368C68.174 48.368 67.38 49.291 67.03 50.182C66.902 50.499 66.87 50.945 66.87 51.39V60.36H62.035V49.77V49.768ZM80.613 60.36V48.37H78.545V44.808H80.613V44.2C80.613 42.325 81.185 40.257 82.553 38.985C83.793 37.839 85.447 37.425 86.879 37.425C87.929 37.425 88.755 37.585 89.423 37.745L89.233 41.465C88.818 41.338 88.309 41.243 87.673 41.243C86.083 41.243 85.415 42.483 85.415 44.01V44.806H88.532V48.368H85.446V60.36H80.612H80.613ZM90.887 37.776H95.722V60.36H90.887V37.777V37.776ZM113.63 55.366C113.63 57.402 113.695 59.056 113.758 60.361H109.56L109.337 58.166H109.241C108.638 59.121 107.174 60.712 104.376 60.712C101.194 60.712 98.904 58.74 98.904 53.937V44.807H103.74V53.173C103.74 55.433 104.47 56.801 106.188 56.801C107.524 56.801 108.318 55.878 108.605 55.115C108.732 54.829 108.795 54.479 108.795 54.065V44.809H113.631V55.369L113.63 55.366ZM119.262 42.77C117.64 42.77 116.589 41.625 116.589 40.194C116.589 38.73 117.671 37.617 119.324 37.617C120.978 37.617 121.997 38.73 122.028 40.194C122.028 41.624 120.978 42.77 119.291 42.77H119.261H119.262ZM116.876 60.36V44.807H121.711V60.36H116.877H116.876ZM130.363 40.575V44.805H133.83V48.368H130.363V54.03C130.363 55.907 130.841 56.766 132.273 56.766C132.94 56.766 133.258 56.734 133.703 56.639L133.735 60.296C133.131 60.519 131.955 60.71 130.618 60.71C129.06 60.71 127.755 60.17 126.96 59.374C126.07 58.452 125.624 56.957 125.624 54.762V48.368H123.556V44.806H125.624V41.88L130.364 40.575H130.363ZM138.38 42.77C136.758 42.77 135.707 41.625 135.707 40.194C135.707 38.73 136.789 37.617 138.443 37.617C140.097 37.617 141.116 38.73 141.146 40.194C141.146 41.624 140.096 42.77 138.411 42.77H138.381H138.38ZM135.994 60.36V44.807H140.829V60.36H135.993H135.994ZM147.668 44.806L149.768 52.026C150.148 53.331 150.404 54.571 150.658 55.812H150.753C151.008 54.539 151.263 53.362 151.613 52.026L153.616 44.806H158.706L152.916 60.361H148.081L142.421 44.807H147.669L147.668 44.806ZM163.414 54.094C163.574 56.13 165.546 57.084 167.804 57.084C169.458 57.084 170.794 56.861 172.098 56.416L172.734 59.692C171.144 60.362 169.204 60.678 167.104 60.678C161.824 60.678 158.802 57.625 158.802 52.726C158.802 48.782 161.282 44.424 166.659 44.424C171.684 44.424 173.592 48.337 173.592 52.184C173.592 53.014 173.497 53.744 173.432 54.126L163.412 54.094H163.414ZM169.108 50.786C169.108 49.641 168.598 47.636 166.404 47.636C164.337 47.636 163.51 49.513 163.382 50.786H169.108ZM175.4 43.88H174.203V43.036H177.613V43.879H176.403V47.473H175.4V43.88ZM181.874 45.775C181.854 45.242 181.834 44.603 181.834 43.952H181.821C181.678 44.518 181.493 45.15 181.321 45.67L180.781 47.4H180L179.526 45.69C179.381 45.163 179.236 44.538 179.124 43.952H179.111C179.091 44.552 179.064 45.236 179.038 45.788L178.952 47.474H178.024L178.308 43.036H179.645L180.079 44.524C180.224 45.031 180.355 45.584 180.453 46.104H180.483C180.6 45.591 180.751 45.012 180.903 44.511L181.371 43.037H182.687L182.924 47.475H181.95L181.878 45.775H181.874Z" fill="black"/>
</svg>
